icon-themes/sifr_svg/cmd/sc_vruler.svg

<svg viewBox="0 0 16 16" xmlns="http://www.w3.org/2000/svg"><path d="m4 16h8v-16h-8zm2-2v-2h3v-2h-3v-3h3v-2h-3v-3h4v12z" fill="#555753"/></svg>

<svg xmlns="http://www.w3.org/2000/svg" viewBox="0 0 16 16">
  <path
     style="fill:#555753"
     d="m 4,16 h 8 V 0 H 4 Z M 6,14 V 12 H 9 V 10 H 6 V 7 H 9 V 5 H 6 V 2 h 4 v 12 z"
     />
</svg>
